assets/awscodepipeline/original.svg

<svg height="64" viewBox="0 0 64 64" width="64" xmlns="http://www.w3.org/2000/svg"><g fill="none" fill-rule="evenodd"><path d="m0 0h64v64h-64z" fill="#c925d1"/><path d="m23 25h4v-2h-4zm6.732 23.123-1.849-.759 5.943-14.503 1.852.759zm6.629-4.463 4.117-3.612-4.113-3.566 1.311-1.51 4.978 4.317a1 1 0 0 1 .004 1.507l-4.978 4.368zm-15.783-3.54a1 1 0 0 1 .338-.756l4.962-4.386 1.324 1.498-4.103 3.628 4.077 3.516-1.307 1.514-4.944-4.263a1 1 0 0 1 -.347-.751m27.957-12.12h-33.07c-1.751 0-3.189-1.311-3.418-3h8.953v-2h-9v-6.536a3.47 3.47 0 0 1 3.465-3.464h33.07a3.47 3.47 0 0 1 3.465 3.464v6.536h-23v2h22.953c-.229 1.689-1.667 3-3.418 3m-30.535 24h27v-22h-27zm30.535-41h-33.07a5.47 5.47 0 0 0 -5.465 5.464v8.072a5.47 5.47 0 0 0 5.465 5.464h.535v23a1 1 0 0 0 1 1h29a1 1 0 0 0 1-1v-23h1.535a5.47 5.47 0 0 0 5.465-5.464v-8.072a5.47 5.47 0 0 0 -5.465-5.464" fill="#fff"/></g></svg>

<svg xmlns="http://www.w3.org/2000/svg" width="64" height="64" viewBox="0 0 64 64"><g fill="none" fill-rule="evenodd"><path fill="#c925d1" d="M0 0h64v64H0z"/><path fill="#fff" d="M23 25h4v-2h-4zm6.732 23.123-1.849-.759 5.943-14.503 1.852.759zm6.629-4.463 4.117-3.612-4.113-3.566 1.311-1.51 4.978 4.317a1 1 0 0 1 .004 1.507l-4.978 4.368zm-15.783-3.54a1 1 0 0 1 .338-.756l4.962-4.386 1.324 1.498-4.103 3.628 4.077 3.516-1.307 1.514-4.944-4.263a1 1 0 0 1-.347-.751M48.535 28h-33.07c-1.751 0-3.189-1.311-3.418-3H21v-2h-9v-6.536A3.47 3.47 0 0 1 15.465 13h33.07A3.47 3.47 0 0 1 52 16.464V23H29v2h22.953c-.229 1.689-1.667 3-3.418 3M18 52h27V30H18zm30.535-41h-33.07A5.47 5.47 0 0 0 10 16.464v8.072A5.47 5.47 0 0 0 15.465 30H16v23a1 1 0 0 0 1 1h29a1 1 0 0 0 1-1V30h1.535A5.47 5.47 0 0 0 54 24.536v-8.072A5.47 5.47 0 0 0 48.535 11"/></g></svg>
